X: 39924
T: Thomas You Cannot
R: jig
M: 6/8
K: Dmajor
D|FGA B2 A|d2 c B2 A|FGF E2D|D d2 d2:|
d|c2 d edc|dec B2A|c2 d e2 F|
GAF E2 d|c2 d edc|BcA d2 A|
FGF E2 D|BdA BdA|FGF E2 D|D d2 d2||

